Dominus_Dark_Funeral/22/apps/wikipedia.svg

<svg xmlns="http://www.w3.org/2000/svg" width="24" height="24"><path d="M15.425 4.85c-.781 0-1.707.003-2.277.006l-.056.039v.41c0 .05.02.085.062.115a.22.22 0 0 0 .132.052l.18.019c.466.02.685.145.749.224.111.14.163.294-.106.897L12.5 9.905l-1.454-3.056c-.477-.977-.594-1.282.125-1.34l.287-.037c.138 0 .206-.05.206-.148v-.43l-.106-.038-3.925.007-.056.038v.43c0 .095.099.122.287.147.673.091.657.162 1.323 1.518.1.203.393.814.393.814l1.516 3.062.443 1.006-2.202 4.51-.125-.032S5.79 8.95 4.8 6.471c-.102-.257-.15-.446-.15-.564 0-.251.22-.385.662-.403l.518-.026c.136 0 .206-.054.206-.167v-.403l-.05-.045s-4.095-.005-4.942 0l-.044.046v.423c0 .077.09.126.282.146.52.03.865.115 1.03.257.163.144.337.505.567 1.07 1.244 3.067 3.886 8.543 5.172 11.66.371.85.833.984 1.398-.026.61-1.161 1.676-3.403 2.54-5.234.012-.178.012.164.168.058.807 1.823 1.78 4.019 2.321 5.163.42.888.894.973 1.379.026 1.266-2.892 4.974-11.59 4.974-11.59.16-.427.38-.755.667-.993.286-.237.727-.37 1.323-.397.122 0 .181-.056.181-.167v-.41l-.044-.044h-4.548l-.057.044v.41c0 .049.022.085.063.115a.217.217 0 0 0 .132.052l.38.019c.466.02.593.115.773.275.18.166.203.444.062.84l-4.024 9.808-.156-.045-2.558-5.362.062-.128 2.09-4.017c.244-.424.48-.804.6-.98.218-.323.34-.382.936-.41.12 0 .18-.055.18-.167v-.403l-.044-.046s-.64-.005-1.422-.005z" fill="#e6e6e6"/></svg>

<?xml version="1.0" encoding="UTF-8" standalone="no"?>
<svg
   xmlns:dc="http://purl.org/dc/elements/1.1/"
   xmlns:cc="http://creativecommons.org/ns#"
   xmlns:rdf="http://www.w3.org/1999/02/22-rdf-syntax-ns#"
   xmlns:svg="http://www.w3.org/2000/svg"
   xmlns="http://www.w3.org/2000/svg"
   xmlns:sodipodi="http://sodipodi.sourceforge.net/DTD/sodipodi-0.dtd"
   xmlns:inkscape="http://www.inkscape.org/namespaces/inkscape"
   width="24"
   height="24"
   version="1.1"
   id="svg4"
   sodipodi:docname="wikipedia.svg"
   inkscape:version="0.92.4 (5da689c313, 2019-01-14)">
  <metadata
     id="metadata10">
    <rdf:RDF>
      <cc:Work
         rdf:about="">
        <dc:format>image/svg+xml</dc:format>
        <dc:type
           rdf:resource="http://purl.org/dc/dcmitype/StillImage" />
        <dc:title></dc:title>
      </cc:Work>
    </rdf:RDF>
  </metadata>
  <defs
     id="defs8" />
  <sodipodi:namedview
     pagecolor="#ffffff"
     bordercolor="#666666"
     borderopacity="1"
     objecttolerance="10"
     gridtolerance="10"
     guidetolerance="10"
     inkscape:pageopacity="0"
     inkscape:pageshadow="2"
     inkscape:window-width="1138"
     inkscape:window-height="480"
     id="namedview6"
     showgrid="false"
     inkscape:zoom="9.8333333"
     inkscape:cx="1.0677966"
     inkscape:cy="12"
     inkscape:window-x="0"
     inkscape:window-y="25"
     inkscape:window-maximized="0"
     inkscape:current-layer="svg4" />
  <path
     d="m 15.425,4.85 c -0.781,0 -1.707,0.003 -2.277,0.006 l -0.056,0.039 v 0.41 c 0,0.05 0.02,0.085 0.062,0.115 a 0.22,0.22 0 0 0 0.132,0.052 l 0.18,0.019 c 0.466,0.02 0.685,0.145 0.749,0.224 0.111,0.14 0.163,0.294 -0.106,0.897 L 12.5,9.905 11.046,6.849 C 10.569,5.872 10.452,5.567 11.171,5.509 l 0.287,-0.037 c 0.138,0 0.206,-0.05 0.206,-0.148 V 4.894 L 11.558,4.856 7.633,4.863 7.577,4.901 v 0.43 c 0,0.095 0.099,0.122 0.287,0.147 C 8.537,5.569 8.521,5.64 9.187,6.996 9.287,7.199 9.58,7.81 9.58,7.81 l 1.516,3.062 0.443,1.006 -2.202,4.51 -0.125,-0.032 C 9.212,16.356 5.79,8.95 4.8,6.471 4.698,6.214 4.65,6.025 4.65,5.907 4.65,5.656 4.87,5.522 5.312,5.504 L 5.83,5.478 c 0.136,0 0.206,-0.054 0.206,-0.167 V 4.908 L 5.986,4.863 c 0,0 -4.095,-0.005 -4.942,0 L 1,4.909 v 0.423 c 0,0.077 0.09,0.126 0.282,0.146 0.52,0.03 0.865,0.115 1.03,0.257 0.163,0.144 0.337,0.505 0.567,1.07 1.244,3.067 3.886,8.543 5.172,11.66 0.371,0.85 0.833,0.984 1.398,-0.026 0.61,-1.161 1.676,-3.403 2.54,-5.234 0.012,-0.178 0.012,0.164 0.168,0.058 0.807,1.823 1.78,4.019 2.321,5.163 0.42,0.888 0.894,0.973 1.379,0.026 1.266,-2.892 4.974,-11.59 4.974,-11.59 0.16,-0.427 0.38,-0.755 0.667,-0.993 0.286,-0.237 0.727,-0.37 1.323,-0.397 0.122,0 0.181,-0.056 0.181,-0.167 V 4.895 L 22.958,4.851 H 18.41 l -0.057,0.044 v 0.41 c 0,0.049 0.022,0.085 0.063,0.115 a 0.217,0.217 0 0 0 0.132,0.052 l 0.38,0.019 c 0.466,0.02 0.593,0.115 0.773,0.275 0.18,0.166 0.203,0.444 0.062,0.84 l -4.024,9.808 -0.156,-0.045 -2.558,-5.362 0.062,-0.128 2.09,-4.017 c 0.244,-0.424 0.48,-0.804 0.6,-0.98 0.218,-0.323 0.34,-0.382 0.936,-0.41 0.12,0 0.18,-0.055 0.18,-0.167 V 4.902 L 16.849,4.856 c 0,0 -0.64,-0.005 -1.422,-0.005 z"
     id="path2"
     inkscape:connector-curvature="0"
     style="fill:#e6e6e6" />
</svg>
